icon-svg/double-spot.svg

<?xml version="1.0" encoding="UTF-8"?>
<svg width="32px" height="32px" viewBox="0 0 32 32" version="1.1" fill="#44739e" xmlns="http://www.w3.org/2000/svg" xmlns:xlink="http://www.w3.org/1999/xlink">
            <path d="M30.0037994,23.529 C29.3527994,25.333 28.0147994,26.516 27.0177994,26.173 C26.0197994,25.828 25.7387994,24.088 26.3907994,22.283 C27.0427994,20.479 28.3797994,19.297 29.3777994,19.64 C30.3747994,19.984 30.6557994,21.725 30.0037994,23.529 M6.83079944,21.075 C6.19479944,21.296 5.34179944,20.535 4.92479944,19.376 C4.50779944,18.217 4.68579944,17.097 5.32179944,16.877 C5.95779944,16.656 6.81179944,17.418 7.22879944,18.577 C7.64579944,19.736 7.46779944,20.854 6.83079944,21.075 M30.5347994,18.316 L20.9997994,15.194 L20.9997994,9.758 C22.3047994,9.626 23.5287994,9.443 24.5947994,9.203 C26.5367994,8.762 27.6397994,8.216 27.9247994,7.653 C27.9777994,7.559 27.9997994,7.46 27.9997994,7.36 L27.9997994,6.642 C27.9997994,6.543 27.9777994,6.449 27.9247994,6.349 C27.6327994,5.762 26.4407994,5.199 24.3777994,4.753 C19.7197994,3.749 12.2647994,3.749 7.61479944,4.753 C5.55279944,5.199 4.36679944,5.762 4.07479944,6.349 C4.02279944,6.449 3.99979944,6.543 3.99979944,6.642 L3.99979944,7.36 C3.99979944,7.46 4.02279944,7.559 4.07479944,7.653 C4.35979944,8.216 5.46279944,8.762 7.41179944,9.203 C8.47579944,9.442 9.69779944,9.625 10.9997994,9.757 L10.9997994,13.233 L4.09879944,15.551 C2.97779944,15.939 2.66279944,17.907 3.39479944,19.945 C4.12679944,21.984 5.62979944,23.321 6.75079944,22.932 L14.2747994,19.467 C15.1257994,19.135 15.2447994,17.453 14.5397994,15.709 C14.1687994,14.789 13.5887994,14.017 12.9997994,13.533 L12.9997994,9.913 C14.9677994,10.024 17.0317994,10.025 18.9997994,9.914 L18.9997994,15.449 C18.1047994,16.037 17.1787994,17.156 16.6127994,18.522 C15.6737994,20.789 15.8317994,22.976 16.9667994,23.408 L26.9987994,27.913 C28.4937994,28.418 30.4967994,26.679 31.4737994,24.029 C32.4497994,21.38 32.0287994,18.822 30.5347994,18.316"></path>
</svg>

<svg xmlns="http://www.w3.org/2000/svg" fill="#44739e" viewBox="0 0 24 24"><path d="M30.0038 23.529c-.651 1.804-1.989 2.987-2.986 2.644-.998-.345-1.279-2.085-.627-3.89.652-1.804 1.989-2.986 2.987-2.643.997.344 1.278 2.085.626 3.889m-23.173-2.454c-.636.221-1.489-.54-1.906-1.699s-.239-2.279.397-2.499c.636-.221 1.49.541 1.907 1.7s.239 2.277-.398 2.498m23.704-2.759-9.535-3.122V9.758c1.305-.132 2.529-.315 3.595-.555 1.942-.441 3.045-.987 3.33-1.55a.587.587 0 0 0 .075-.293v-.718c0-.099-.022-.193-.075-.293-.292-.587-1.484-1.15-3.547-1.596-4.658-1.004-12.113-1.004-16.763 0-2.062.446-3.248 1.009-3.54 1.596-.052.1-.075.194-.075.293v.718c0 .1.023.199.075.293.285.563 1.388 1.109 3.337 1.55 1.064.239 2.286.422 3.588.554v3.476l-6.901 2.318c-1.121.388-1.436 2.356-.704 4.394.732 2.039 2.235 3.376 3.356 2.987l7.524-3.465c.851-.332.97-2.014.265-3.758-.371-.92-.951-1.692-1.54-2.176v-3.62c1.968.111 4.032.112 6 .001v5.535c-.895.588-1.821 1.707-2.387 3.073-.939 2.267-.781 4.454.354 4.886l10.032 4.505c1.495.505 3.498-1.234 4.475-3.884.976-2.649.555-5.207-.939-5.713"/></svg>
